icons/folder-netlify.svg

<svg xmlns="http://www.w3.org/2000/svg" viewBox="0 0 16 16">
<path id="folder" fill="#26a69a" d="m6.922 3.768-.644-.536A1 1 0 0 0 5.638 3H2a1 1 0 0 0-1 1v8a1 1 0 0 0 1 1h12a1 1 0 0 0 1-1V5a1 1 0 0 0-1-1H7.562a1 1 0 0 1-.64-.232" />
<path id="motive" fill="#a7ffeb" d="M 10.25,4 C 10.1115,4 10,4.1115 10,4.25 v 2.5 C 10,6.8885 10.1115,7 10.25,7 h 0.5 C 10.8885,7 11,6.8885 11,6.75 V 4.25 C 11,4.1115 10.8885,4 10.75,4 Z M 7.207031,5.378906 6.5,6.085938 7.914063,7.5 8.621094,6.792969 Z M 9,8 v 3 h 1 V 9 h 0.75 A 0.25,0.25 0 0 1 11,9.25 V 11 h 1 V 9 A 1,1 0 0 0 11,8 Z M 5.25,9 C 5.1115,9 5,9.1115 5,9.25 v 0.5 C 5,9.8885 5.1115,10 5.25,10 h 2.5 C 7.8885,10 8,9.8885 8,9.75 V 9.25 C 8,9.1115 7.8885,9 7.75,9 Z m 8,0 C 13.1115,9 13,9.1115 13,9.25 v 0.5 C 13,9.8885 13.1115,10 13.25,10 h 2.5 C 15.8885,10 16,9.8885 16,9.75 V 9.25 C 16,9.1115 15.8885,9 15.75,9 Z M 7.914063,11.5 6.5,12.914062 7.207031,13.621094 8.621094,12.207031 Z M 10.25,12 C 10.1115,12 10,12.1115 10,12.25 v 2.5 c 0,0.1385 0.1115,0.25 0.25,0.25 h 0.5 C 10.8885,15 11,14.8885 11,14.75 v -2.5 C 11,12.1115 10.8885,12 10.75,12 Z" />
</svg>

<svg xmlns="http://www.w3.org/2000/svg" viewBox="0 0 16 16"><path id="folder" fill="#26a69a" d="m6.922 3.768-.644-.536A1 1 0 0 0 5.638 3H2a1 1 0 0 0-1 1v8a1 1 0 0 0 1 1h12a1 1 0 0 0 1-1V5a1 1 0 0 0-1-1H7.562a1 1 0 0 1-.64-.232"/><path id="motive" fill="#a7ffeb" d="M10.25 4a.25.25 0 0 0-.25.25v2.5c0 .138.111.25.25.25h.5a.25.25 0 0 0 .25-.25v-2.5a.25.25 0 0 0-.25-.25ZM7.207 5.379l-.707.707L7.914 7.5l.707-.707ZM9 8v3h1V9h.75a.25.25 0 0 1 .25.25V11h1V9a1 1 0 0 0-1-1ZM5.25 9a.25.25 0 0 0-.25.25v.5c0 .139.112.25.25.25h2.5A.25.25 0 0 0 8 9.75v-.5A.25.25 0 0 0 7.75 9Zm8 0a.25.25 0 0 0-.25.25v.5c0 .139.111.25.25.25h2.5a.25.25 0 0 0 .25-.25v-.5a.25.25 0 0 0-.25-.25Zm-5.336 2.5L6.5 12.914l.707.707 1.414-1.414Zm2.336.5a.25.25 0 0 0-.25.25v2.5c0 .139.112.25.25.25h.5a.25.25 0 0 0 .25-.25v-2.5a.25.25 0 0 0-.25-.25Z"/></svg>
